X: 21551
Q: "Slow with expression."
M: 2/4
L: 1/16
K: F
[|\
c2c2 (cB)(AG) | (FA) (cf) {f}e4 | f3f (ge)(cB) | (Ac)(Bd) A2G2 |\
c3c (cB)(AG) | (FA) (cf) f2e2 | f3f g3B |
e3(d/c/) {c}=B2(AG) | c3c d4 | G2G2G3G | f2e2d2z2 |
e2d2c2z2 | g2f2e2z2 | e2z2 d2z2 | Hc4 "^D.C. al Fine."z4 |]\
f2e2 fdzd |\
_e3ed3d | ^c2d2 f=ez2 | A3A =c3c | _e3c cBz2 |\


